X:1
T:Euphemia, CMD
T:Euphemia, CMD
T:Benjamin Carl Unseld, 1901
T:Public Domain Courtesy of the Cyber Hymnal™
C:Benjamin Carl Unseld, 1901
Z:Public Domain
Z:Courtesy of the Cyber Hymnal™
%%score ( 1 2 ) ( 3 4 )
L:1/8
Q:1/4=135
M:3/4
K:Ab
V:1 treble 
V:2 treble 
V:3 bass 
V:4 bass 
V:1
 [Ec]2 [DB]2 [CA]2 | [CE]4 [DF]2 | [DF]4 [DE]2 | [CE]4 E2 | (F2 G2) [DA]2 | [=DB]4 [Dc]2 | [EB]6- | %7
 [EB]6 | [Ec]2 [DB]2 [CA]2 | [CE]4 [DF]2 | [DF]4 [DE]2 | [CE]4 E2 | ([DF]2 [FA]2) [Fd]2 | %13
 [Ec]4 [DB]2 | [CA]6- | [CA]6 | [FA]2 [FG]2 F2 | [Fc]4 [_Gc]2 | (d2 G2) [Fd]2 | [=Ec]4 [EB]2 | %20
 (A2 G2) F2 | [FA]4 [FB]2 | ([Fc-]6 | [=Ec]6) | [Ec]2 [DB]2 [CA]2 | [CE]4 [DF]2 | [DF]4 [DE]2 | %27
 [CE]4 E2 | ([DF]2 [FA]2) [Fd]2 | [Ec]4 [DB]2 | [CA]6- | [CA]6 |] %32
V:2
 x6 | x6 | x6 | x4 E2 | D4 x2 | x6 | x6 | x6 | x6 | x6 | x6 | x4 E2 | x6 | x6 | x6 | x6 | x4 F2 | %17
 x6 | F4 x2 | x6 | F4 F2 | x6 | x6 | x6 | x6 | x6 | x6 | x4 E2 | x6 | x6 | x6 | x6 |] %32
V:3
 [A,,A,]2 [A,,A,]2 [A,,A,]2 | [A,,A,]4 [A,,A,]2 | [B,,G,]4 [G,,B,]2 | [A,,A,]4 [C,A,]2 | %4
 (A,2 G,2) [D,F,]2 | [B,,F,]4 [B,,A,]2 | [E,G,]6- | [E,G,]6 | [A,,A,]2 [A,,A,]2 [A,,A,]2 | %9
 [A,,A,]4 [A,,A,]2 | [B,,G,]4 [G,,B,]2 | [A,,A,]4 [C,A,]2 | [D,A,]4 [D,A,]2 | [E,A,]4 [E,G,]2 | %14
 [A,,A,]6- | [A,,A,]6 | [F,C]2 [F,B,]2 [F,A,]2 | [F,A,]4 [E,=A,]2 | [D,B,]4 [B,,B,]2 | %19
 [C,G,]4 [C,C]2 | (C2 B,2) [F,A,]2 | [F,A,]4 [F,A,]2 | ([C,-A,]6 | [C,G,]6) | %24
 [A,,A,]2 [A,,A,]2 [A,,A,]2 | [A,,A,]4 [A,,A,]2 | [B,,G,]4 [G,,B,]2 | [A,,A,]4 [C,A,]2 | %28
 [D,A,]4 [D,A,]2 | [E,A,]4 [E,G,]2 | [A,,A,]6- | [A,,A,]6 |] %32
V:4
 x6 | x6 | x6 | x6 | D,4 x2 | x6 | x6 | x6 | x6 | x6 | x6 | x6 | x6 | x6 | x6 | x6 | x6 | x6 | x6 | %19
 x6 | F,4 x2 | x6 | x6 | x6 | x6 | x6 | x6 | x6 | x6 | x6 | x6 | x6 |] %32

